communes/5583.svg

<?xml version="1.0" encoding="UTF-8" standalone="no"?>
<!-- Created with Inkscape (http://www.inkscape.org/) -->
<svg
   xmlns:dc="http://purl.org/dc/elements/1.1/"
   xmlns:cc="http://creativecommons.org/ns#"
   xmlns:rdf="http://www.w3.org/1999/02/22-rdf-syntax-ns#"
   xmlns:svg="http://www.w3.org/2000/svg"
   xmlns="http://www.w3.org/2000/svg"
   xmlns:xlink="http://www.w3.org/1999/xlink"
   xmlns:sodipodi="http://sodipodi.sourceforge.net/DTD/sodipodi-0.dtd"
   xmlns:inkscape="http://www.inkscape.org/namespaces/inkscape"
   width="500"
   height="627.35999"
   id="svg2"
   sodipodi:version="0.32"
   inkscape:version="0.46"
   version="1.0"
   sodipodi:docname="Wappen Crissier.svg"
   inkscape:output_extension="org.inkscape.output.svg.inkscape">
  <defs
     id="defs4">
    <inkscape:perspective
       sodipodi:type="inkscape:persp3d"
       inkscape:vp_x="0 : 526.18109 : 1"
       inkscape:vp_y="0 : 1000 : 0"
       inkscape:vp_z="744.09448 : 526.18109 : 1"
       inkscape:persp3d-origin="372.04724 : 350.78739 : 1"
       id="perspective10" />
    <inkscape:perspective
       sodipodi:type="inkscape:persp3d"
       inkscape:vp_x="0 : 420.94501 : 1"
       inkscape:vp_y="0 : 1000 : 0"
       inkscape:vp_z="595.27502 : 420.94501 : 1"
       inkscape:persp3d-origin="297.63751 : 280.63 : 1"
       id="perspective2633" />
    <radialGradient
       r="300"
       fy="579.93323"
       fx="858.04236"
       cy="579.93323"
       cx="858.04236"
       gradientTransform="matrix(1.21503,0,0,1.26667,-839.192,-490.489)"
       gradientUnits="userSpaceOnUse"
       id="radialGradient3236"
       xlink:href="#linearGradient2893"
       inkscape:collect="always" />
    <linearGradient
       id="linearGradient2955">
      <stop
         id="stop2965"
         offset="0"
         style="stop-color: white; stop-opacity: 0;" />
      <stop
         id="stop2959"
         offset="1"
         style="stop-color: black; stop-opacity: 0.645833;" />
    </linearGradient>
    <linearGradient
       id="linearGradient2893">
      <stop
         id="stop2895"
         offset="0"
         style="stop-color: rgb(255, 255, 255); stop-opacity: 0.313726;" />
      <stop
         style="stop-color: rgb(255, 255, 255); stop-opacity: 0.25098;"
         offset="0.19"
         id="stop2897" />
      <stop
         id="stop2901"
         offset="0.60000002"
         style="stop-color: rgb(107, 107, 107); stop-opacity: 0.12549;" />
      <stop
         id="stop2899"
         offset="1"
         style="stop-color: rgb(0, 0, 0); stop-opacity: 0.12549;" />
    </linearGradient>
    <inkscape:perspective
       id="perspective28"
       inkscape:persp3d-origin="301.5 : 254.33333 : 1"
       inkscape:vp_z="603 : 381.5 : 1"
       inkscape:vp_y="0 : 1000 : 0"
       inkscape:vp_x="0 : 381.5 : 1"
       sodipodi:type="inkscape:persp3d" />
    <radialGradient
       inkscape:collect="always"
       xlink:href="#linearGradient2893"
       id="radialGradient2616"
       gradientUnits="userSpaceOnUse"
       gradientTransform="matrix(1.21503,0,0,1.26667,-839.192,-490.489)"
       cx="858.04236"
       cy="579.93323"
       fx="858.04236"
       fy="579.93323"
       r="300" />
    <radialGradient
       inkscape:collect="always"
       xlink:href="#linearGradient2893"
       id="radialGradient2619"
       gradientUnits="userSpaceOnUse"
       gradientTransform="matrix(1.21503,0,0,1.26667,-1434.9777,-648.19825)"
       cx="858.04236"
       cy="579.93323"
       fx="858.04236"
       fy="579.93323"
       r="300" />
  </defs>
  <sodipodi:namedview
     id="base"
     pagecolor="#ffffff"
     bordercolor="#666666"
     borderopacity="1.0"
     inkscape:pageopacity="0.0"
     inkscape:pageshadow="2"
     inkscape:zoom="0.35"
     inkscape:cx="8.5714286"
     inkscape:cy="520"
     inkscape:document-units="px"
     inkscape:current-layer="layer1"
     showgrid="false"
     inkscape:window-width="1280"
     inkscape:window-height="750"
     inkscape:window-x="-8"
     inkscape:window-y="-8" />
  <metadata
     id="metadata7">
    <rdf:RDF>
      <cc:Work
         rdf:about="">
        <dc:format>image/svg+xml</dc:format>
        <dc:type
           rdf:resource="http://purl.org/dc/dcmitype/StillImage" />
      </cc:Work>
    </rdf:RDF>
  </metadata>
  <g
     inkscape:label="Ebene 1"
     inkscape:groupmode="layer"
     id="layer1"
     transform="translate(595.78571,2.0724314)">
    <g
       id="g2673"
       transform="matrix(0.7960199,0,0,0.7960199,-111.52843,133.46567)">
      <path
         id="path1899"
         d="M -594.28571,-156.20927 L -594.28571,302.65865 C -594.28571,468.96925 -459.97115,603.79075 -294.28572,603.79075 C -128.60028,603.79075 5.71429,468.96925 5.71429,302.65865 L 5.71429,-156.20927 L -594.28571,-156.20927 z"
         style="fill:#e20909;fill-opacity:1" />
      <path
         id="path2558"
         d="M -594.2839,-156.20925 L -594.2839,302.65975 C -594.2839,468.97075 -459.9699,603.79075 -294.2839,603.79075 L -294.2839,-156.20925 L -594.2839,-156.20925 L -594.2839,-156.20925 z"
         style="fill:#ffffff" />
      <line
         id="line2562"
         y2="603.78979"
         x2="-294.28488"
         y1="-156.20924"
         x1="-294.28488"
         style="fill:none;stroke:#000000;stroke-width:3" />
      <path
         style="stroke:#000000;stroke-width:3"
         d="M -214.2189,249.69075 L -551.5519,-73.64325 L -559.1359,-66.06025 L -539.3859,-45.31025 L -549.7189,-33.64325 L -302.8849,206.68975 C -296.0519,213.52275 -296.0519,222.68975 -296.0519,228.93975 C -296.0519,235.18975 -295.9339,242.56475 -294.2839,244.87775 C -292.6339,247.19075 -269.8849,280.02375 -240.5519,313.02375 C -211.2189,346.02375 -190.2179,386.35775 -180.8849,425.35775 C -171.5519,464.35775 -176.0519,470.19175 -169.2189,477.02475 C -162.3849,483.85775 -149.2189,479.02475 -142.5519,475.35775 C -135.8849,471.69075 -93.5519,427.69075 -84.5519,411.35775 C -100.8849,390.35775 -167.2189,314.02475 -175.2189,311.02475 C -183.2179,308.02475 -194.0519,316.85875 -202.8849,308.02475 C -211.7189,299.19075 -218.5519,267.69075 -214.2189,249.69075 z"
         id="path2566" />
      <line
         id="line2570"
         y2="290.86572"
         x2="-259.39386"
         y1="298.69073"
         x1="-267.21887"
         style="fill:none;stroke:#000000;stroke-width:3.5;stroke-linecap:round;stroke-linejoin:round" />
      <path
         id="path2572"
         d="M -225.8849,365.69075 C -225.8849,365.69075 -222.3239,352.70275 -215.5449,345.92275"
         style="fill:none;stroke:#000000;stroke-width:3.5;stroke-linecap:round;stroke-linejoin:round" />
      <path
         id="path2574"
         d="M -215.5459,345.92275 C -215.5459,345.92275 -231.1359,357.44075 -243.3859,348.94075 C -255.6359,340.44075 -255.6359,338.44075 -255.6359,322.94075 C -255.6359,307.44075 -254.8759,299.27775 -253.5449,297.94575"
         style="fill:none;stroke:#000000;stroke-width:3.5;stroke-linecap:round;stroke-linejoin:round" />
      <path
         id="path2576"
         d="M -249.0519,329.19075 C -245.5519,332.69075 -239.0519,334.02375 -235.5519,330.52375 C -232.0519,327.02375 -230.3029,325.27475 -230.3029,325.27475"
         style="fill:none;stroke:#000000;stroke-width:3.5;stroke-linecap:round;stroke-linejoin:round" />
      <path
         id="path2580"
         d="M -273.3849,238.19075 C -273.3849,233.02375 -262.7189,231.35775 -262.7189,231.35775 C -266.5519,216.85775 -262.2189,200.85775 -251.8849,196.19075 C -242.3749,191.89575 -233.0519,196.19075 -233.0519,196.19075 L -235.0519,202.52375 C -235.0519,202.52375 -243.8849,199.52375 -250.5519,204.19075 C -257.2179,208.85775 -257.2189,222.35775 -256.4689,229.35775 C -256.0179,233.56575 -247.8939,242.47775 -241.5999,250.08875 C -251.9329,263.75575 -260.2179,260.85875 -262.3849,258.69175 C -264.5519,256.52475 -262.3849,245.19175 -262.3849,245.19175 C -262.3849,245.19175 -273.3849,243.35775 -273.3849,238.19075 z"
         style="fill:#ffffff;stroke:#000000;stroke-width:3" />
      <path
         id="path2582"
         d="M -219.8429,186.48275 C -217.4069,187.21275 -225.1209,193.03375 -227.3749,200.99375 C -229.4469,208.31575 -226.5929,219.06575 -228.5519,219.35675 C -233.5799,220.10575 -235.0519,202.52375 -235.0519,202.52375 L -233.0519,196.19075 C -230.0019,190.15075 -223.5099,185.38375 -219.8429,186.48275 z"
         style="stroke:#000000;stroke-width:3" />
      <path
         id="path2584"
         d="M -241.5999,250.08775 C -241.0099,250.80175 -241.0069,250.79975 -239.8849,252.19075 C -237.2129,255.50375 -238.6349,277.44075 -238.6349,277.44075 C -238.6349,277.44075 -258.4889,269.26575 -258.8119,260.38475 L -258.8119,260.38375 C -254.9759,261.08275 -248.7849,259.58975 -241.5999,250.08775 z"
         style="fill:#ffffff;stroke:#000000;stroke-width:3" />
      <circle
         id="circle2586"
         r="2.875"
         cy="405.69501"
         cx="341.18701"
         sodipodi:cx="341.18701"
         sodipodi:cy="405.69501"
         sodipodi:rx="2.875"
         sodipodi:ry="2.875"
         transform="translate(-595.8219,-157.75425)" />
      <line
         id="line2590"
         y2="207.19075"
         x2="-271.38486"
         y1="-39.80925"
         x1="-527.88489"
         style="fill:none;stroke:#ffffff;stroke-width:3.5;stroke-linecap:round;stroke-linejoin:round" />
      <line
         id="line2592"
         y2="410.19077"
         x2="-98.384865"
         y1="366.69077"
         x1="-134.38486"
         style="fill:none;stroke:#ffffff;stroke-width:3.5;stroke-linecap:round;stroke-linejoin:round" />
      <path
         id="path2594"
         d="M -103.5509,420.44075 C -103.5509,420.44075 -119.7599,441.81575 -129.1349,451.19075 C -138.5099,460.56575 -150.9689,473.85775 -159.3019,473.85775 C -165.3849,473.85775 -166.6349,465.35675 -166.6349,462.35675"
         style="fill:none;stroke:#ffffff;stroke-width:3.5;stroke-linecap:round;stroke-linejoin:round" />
      <path
         style="stroke:#000000;stroke-width:3"
         d="M -374.3509,249.69075 L -37.0169,-73.64325 L -29.4329,-66.06025 L -49.1829,-45.31025 L -38.8499,-33.64325 L -285.6839,206.69075 C -292.5169,213.52375 -292.5169,222.69075 -292.5169,228.94075 C -292.5169,235.19075 -292.6349,242.56575 -294.2849,244.87875 C -295.9349,247.19175 -318.6849,280.02475 -348.0179,313.02475 C -377.3509,346.02475 -398.3509,386.35875 -407.6849,425.35875 C -417.0189,464.35875 -412.5179,470.19275 -419.3519,477.02575 C -426.1859,483.85875 -439.3519,479.02575 -446.0189,475.35875 C -452.6859,471.69175 -495.0189,427.69175 -504.0189,411.35875 C -487.6859,390.35875 -421.3519,314.02575 -413.3519,311.02575 C -405.3519,308.02575 -394.5189,316.85975 -385.6849,308.02575 C -376.8509,299.19175 -370.0169,267.69075 -374.3509,249.69075 z"
         id="path2598" />
      <line
         id="line2602"
         y2="290.86572"
         x2="-329.17587"
         y1="298.69073"
         x1="-321.35086"
         style="fill:none;stroke:#000000;stroke-width:3.5;stroke-linecap:round;stroke-linejoin:round" />
      <path
         id="path2604"
         d="M -362.6839,365.69075 C -362.6839,365.69075 -366.2449,352.70275 -373.0239,345.92275"
         style="fill:none;stroke:#000000;stroke-width:3.5;stroke-linecap:round;stroke-linejoin:round" />
      <path
         id="path2606"
         d="M -373.0239,345.92275 C -373.0239,345.92275 -357.4339,357.44075 -345.1839,348.94075 C -332.9339,340.44075 -332.9339,338.44075 -332.9339,322.94075 C -332.9339,307.44075 -333.6939,299.27775 -335.0249,297.94575"
         style="fill:none;stroke:#000000;stroke-width:3.5;stroke-linecap:round;stroke-linejoin:round" />
      <path
         id="path2608"
         d="M -339.5179,329.19075 C -343.0179,332.69075 -349.5179,334.02375 -353.0179,330.52375 C -356.5179,327.02375 -358.2669,325.27475 -358.2669,325.27475"
         style="fill:none;stroke:#000000;stroke-width:3.5;stroke-linecap:round;stroke-linejoin:round" />
      <path
         id="path2612"
         d="M -315.1839,238.19075 C -315.1839,233.02375 -325.8509,231.35775 -325.8509,231.35775 C -322.0179,216.85775 -326.3509,200.85775 -336.6839,196.19075 C -346.1939,191.89575 -355.5169,196.19075 -355.5169,196.19075 L -353.5169,202.52375 C -353.5169,202.52375 -344.6839,199.52375 -338.0169,204.19075 C -331.3499,208.85775 -331.3499,222.35775 -332.0999,229.35775 C -332.5509,233.56575 -340.6749,242.47775 -346.9689,250.08875 C -336.6359,263.75575 -328.3509,260.85875 -326.1839,258.69175 C -324.0169,256.52475 -326.1839,245.19175 -326.1839,245.19175 C -326.1839,245.19175 -315.1839,243.35775 -315.1839,238.19075 z"
         style="fill:#ffffff;stroke:#000000;stroke-width:3" />
      <path
         id="path2614"
         d="M -368.7259,186.48275 C -371.1619,187.21275 -363.4479,193.03375 -361.1939,200.99375 C -359.1209,208.31575 -361.9759,219.06575 -360.0169,219.35675 C -354.9889,220.10575 -353.5169,202.52375 -353.5169,202.52375 L -355.5169,196.19075 C -358.5679,190.15075 -365.0589,185.38375 -368.7259,186.48275 z"
         style="stroke:#000000;stroke-width:3" />
      <path
         id="path2616"
         d="M -346.9689,250.08775 C -347.5589,250.80175 -347.5619,250.79975 -348.6839,252.19075 C -351.3559,255.50375 -349.9339,277.44075 -349.9339,277.44075 C -349.9339,277.44075 -330.0799,269.26575 -329.7569,260.38475 L -329.7569,260.38375 C -333.5939,261.08275 -339.7849,259.58975 -346.9689,250.08775 z"
         style="fill:#ffffff;stroke:#000000;stroke-width:3" />
      <circle
         id="circle2618"
         r="2.875"
         cy="405.69501"
         cx="261.888"
         sodipodi:cx="261.888"
         sodipodi:cy="405.69501"
         sodipodi:rx="2.875"
         sodipodi:ry="2.875"
         transform="translate(-595.8219,-157.75425)" />
      <line
         id="line2622"
         y2="207.19075"
         x2="-317.18387"
         y1="-39.80925"
         x1="-60.683903"
         style="fill:none;stroke:#ffffff;stroke-width:3.5;stroke-linecap:round;stroke-linejoin:round" />
      <line
         id="line2624"
         y2="410.19077"
         x2="-490.1839"
         y1="366.69077"
         x1="-454.1839"
         style="fill:none;stroke:#ffffff;stroke-width:3.5;stroke-linecap:round;stroke-linejoin:round" />
      <path
         id="path2626"
         d="M -485.0179,420.44075 C -485.0179,420.44075 -468.8089,441.81575 -459.4339,451.19075 C -450.0589,460.56575 -437.5999,473.85775 -429.2669,473.85775 C -423.1839,473.85775 -421.9339,465.35675 -421.9339,462.35675"
         style="fill:none;stroke:#ffffff;stroke-width:3.5;stroke-linecap:round;stroke-linejoin:round" />
      <path
         style="fill:none;fill-opacity:1;stroke:#000000;stroke-width:3;stroke-miterlimit:4;stroke-dasharray:none;stroke-opacity:1"
         d="M -594.28571,-156.20925 L -594.28571,302.65869 C -594.28571,468.96929 -459.97117,603.79075 -294.28578,603.79075 C -128.60031,603.79075 5.71429,468.96929 5.71429,302.65869 L 5.71429,-156.20925 L -594.28571,-156.20925 z"
         id="path3239" />
    </g>
  </g>
</svg>

<?xml version="1.0" encoding="UTF-8"?>
<svg version="1.0" viewBox="0 0 500 627.36" xmlns="http://www.w3.org/2000/svg" xmlns:cc="http://creativecommons.org/ns#" xmlns:dc="http://purl.org/dc/elements/1.1/" xmlns:rdf="http://www.w3.org/1999/02/22-rdf-syntax-ns#" xmlns:xlink="http://www.w3.org/1999/xlink">
<metadata>
<rdf:RDF>
<cc:Work rdf:about="">
<dc:format>image/svg+xml</dc:format>
<dc:type rdf:resource="http://purl.org/dc/dcmitype/StillImage"/>
</cc:Work>
</rdf:RDF>
</metadata>
<g transform="translate(595.79 2.0724)">
<g transform="matrix(.79602 0 0 .79602 -111.53 133.47)">
<path d="m-594.29-156.21v458.87c0 166.31 134.31 301.13 300 301.13 165.69 0 300-134.82 300-301.13v-458.87h-600z" fill="#e20909"/>
<path d="m-594.28-156.21v458.87c0 166.31 134.31 301.13 300 301.13v-760h-300z" fill="#fff"/>
<line x1="-294.28" x2="-294.28" y1="-156.21" y2="603.79" fill="none" stroke="#000" stroke-width="3"/>
<path d="m-214.22 249.69-337.33-323.33-7.584 7.583 19.75 20.75-10.333 11.667 246.83 240.33c6.833 6.833 6.833 16 6.833 22.25s0.118 13.625 1.768 15.938 24.399 35.146 53.732 68.146 50.334 73.334 59.667 112.33 4.833 44.834 11.666 51.667c6.834 6.833 20 2 26.667-1.667s49-47.667 58-64c-16.333-21-82.667-97.333-90.667-100.33-7.999-3-18.833 5.834-27.666-3-8.834-8.834-15.667-40.334-11.334-58.334z" stroke="#000" stroke-width="3"/>
<line x1="-267.22" x2="-259.39" y1="298.69" y2="290.87" fill="none" stroke="#000" stroke-linecap="round" stroke-linejoin="round" stroke-width="3.5"/>
<path d="m-225.88 365.69s3.561-12.988 10.34-19.768" fill="none" stroke="#000" stroke-linecap="round" stroke-linejoin="round" stroke-width="3.5"/>
<path d="m-215.55 345.92s-15.59 11.518-27.84 3.018-12.25-10.5-12.25-26 0.76-23.663 2.091-24.995" fill="none" stroke="#000" stroke-linecap="round" stroke-linejoin="round" stroke-width="3.5"/>
<path d="m-249.05 329.19c3.5 3.5 10 4.833 13.5 1.333l5.249-5.249" fill="none" stroke="#000" stroke-linecap="round" stroke-linejoin="round" stroke-width="3.5"/>
<path d="m-273.38 238.19c0-5.167 10.666-6.833 10.666-6.833-3.833-14.5 0.5-30.5 10.834-35.167 9.51-4.295 18.833 0 18.833 0l-2 6.333s-8.833-3-15.5 1.667c-6.666 4.667-6.667 18.167-5.917 25.167 0.451 4.208 8.575 13.12 14.869 20.731-10.333 13.667-18.618 10.77-20.785 8.603s0-13.5 0-13.5-11-1.834-11-7.001z" fill="#fff" stroke="#000" stroke-width="3"/>
<path d="m-219.84 186.48c2.436 0.73-5.278 6.551-7.532 14.511-2.072 7.322 0.782 18.072-1.177 18.363-5.028 0.749-6.5-16.833-6.5-16.833l2-6.333c3.05-6.04 9.542-10.807 13.209-9.708z" stroke="#000" stroke-width="3"/>
<path d="m-241.6 250.09c0.59 0.714 0.593 0.712 1.715 2.103 2.672 3.313 1.25 25.25 1.25 25.25s-19.854-8.175-20.177-17.056v-1e-3c3.836 0.699 10.027-0.794 17.212-10.296z" fill="#fff" stroke="#000" stroke-width="3"/>
<circle transform="translate(-595.82 -157.75)" cx="341.19" cy="405.7" r="2.875"/>
<line x1="-527.88" x2="-271.38" y1="-39.809" y2="207.19" fill="none" stroke="#fff" stroke-linecap="round" stroke-linejoin="round" stroke-width="3.5"/>
<line x1="-134.38" x2="-98.385" y1="366.69" y2="410.19" fill="none" stroke="#fff" stroke-linecap="round" stroke-linejoin="round" stroke-width="3.5"/>
<path d="m-103.55 420.44s-16.209 21.375-25.584 30.75-21.834 22.667-30.167 22.667c-6.083 0-7.333-8.501-7.333-11.501" fill="none" stroke="#fff" stroke-linecap="round" stroke-linejoin="round" stroke-width="3.5"/>
<path d="m-374.35 249.69 337.33-323.33 7.584 7.583-19.75 20.75 10.333 11.667-246.83 240.33c-6.833 6.833-6.833 16-6.833 22.25s-0.118 13.625-1.768 15.938-24.4 35.146-53.733 68.146-50.333 73.334-59.667 112.33-4.833 44.834-11.667 51.667-20 2-26.667-1.667-49-47.667-58-64c16.333-21 82.667-97.333 90.667-100.33s18.833 5.834 27.667-3 15.668-40.335 11.334-58.335z" stroke="#000" stroke-width="3"/>
<line x1="-321.35" x2="-329.18" y1="298.69" y2="290.87" fill="none" stroke="#000" stroke-linecap="round" stroke-linejoin="round" stroke-width="3.5"/>
<path d="m-362.68 365.69s-3.561-12.988-10.34-19.768" fill="none" stroke="#000" stroke-linecap="round" stroke-linejoin="round" stroke-width="3.5"/>
<path d="m-373.02 345.92s15.59 11.518 27.84 3.018 12.25-10.5 12.25-26-0.76-23.663-2.091-24.995" fill="none" stroke="#000" stroke-linecap="round" stroke-linejoin="round" stroke-width="3.5"/>
<path d="m-339.52 329.19c-3.5 3.5-10 4.833-13.5 1.333l-5.249-5.249" fill="none" stroke="#000" stroke-linecap="round" stroke-linejoin="round" stroke-width="3.5"/>
<path d="m-315.18 238.19c0-5.167-10.667-6.833-10.667-6.833 3.833-14.5-0.5-30.5-10.833-35.167-9.51-4.295-18.833 0-18.833 0l2 6.333s8.833-3 15.5 1.667 6.667 18.167 5.917 25.167c-0.451 4.208-8.575 13.12-14.869 20.731 10.333 13.667 18.618 10.77 20.785 8.603s0-13.5 0-13.5 11-1.834 11-7.001z" fill="#fff" stroke="#000" stroke-width="3"/>
<path d="m-368.73 186.48c-2.436 0.73 5.278 6.551 7.532 14.511 2.073 7.322-0.782 18.072 1.177 18.363 5.028 0.749 6.5-16.833 6.5-16.833l-2-6.333c-3.051-6.04-9.542-10.807-13.209-9.708z" stroke="#000" stroke-width="3"/>
<path d="m-346.97 250.09c-0.59 0.714-0.593 0.712-1.715 2.103-2.672 3.313-1.25 25.25-1.25 25.25s19.854-8.175 20.177-17.056v-1e-3c-3.837 0.699-10.028-0.794-17.212-10.296z" fill="#fff" stroke="#000" stroke-width="3"/>
<circle transform="translate(-595.82 -157.75)" cx="261.89" cy="405.7" r="2.875"/>
<line x1="-60.684" x2="-317.18" y1="-39.809" y2="207.19" fill="none" stroke="#fff" stroke-linecap="round" stroke-linejoin="round" stroke-width="3.5"/>
<line x1="-454.18" x2="-490.18" y1="366.69" y2="410.19" fill="none" stroke="#fff" stroke-linecap="round" stroke-linejoin="round" stroke-width="3.5"/>
<path d="m-485.02 420.44s16.209 21.375 25.584 30.75 21.834 22.667 30.167 22.667c6.083 0 7.333-8.501 7.333-11.501" fill="none" stroke="#fff" stroke-linecap="round" stroke-linejoin="round" stroke-width="3.5"/>
<path d="m-594.29-156.21v458.87c0 166.31 134.31 301.13 300 301.13 165.69 0 300-134.82 300-301.13v-458.87h-600z" fill="none" stroke="#000" stroke-width="3"/>
</g>
</g>
</svg>
